icons/general-add-square-1.svg

<svg fill="none" viewBox="0 0 24 24"><path stroke="currentColor" stroke-linecap="round" stroke-width="2" d="M15.6 12h-3.6m0 0h-3.6m3.6 0v3.6m0-3.6v-3.6m9.6-2.4v12a3.6 3.6 0 0 1-3.6 3.6h-12a3.6 3.6 0 0 1-3.6-3.6v-12a3.6 3.6 0 0 1 3.6-3.6h12a3.6 3.6 0 0 1 3.6 3.6Z"/></svg>

<svg fill="none" viewBox="0 0 24 24"><path stroke="currentColor" stroke-linecap="round" stroke-width="2" d="M15.6 12H12m0 0H8.4m3.6 0v3.6m0-3.6V8.4M21.6 6v12a3.6 3.6 0 0 1-3.6 3.6H6A3.6 3.6 0 0 1 2.4 18V6A3.6 3.6 0 0 1 6 2.4h12A3.6 3.6 0 0 1 21.6 6Z"/></svg>
